Papirus/64x64/apps/com.github.diegoivanme.plano.svg

<svg xmlns="http://www.w3.org/2000/svg" width="64" height="64" version="1">
 <path style="opacity:0.2" d="M 15.2,5 H 48.8 C 51.119434,5 53,6.8923937 53,9.2264151 V 56.773585 C 53,59.107607 51.119434,61 48.8,61 H 15.2 C 12.880567,61 11,59.107607 11,56.773585 V 9.2264151 C 11,6.8923937 12.880567,5 15.2,5 Z m 0,0"/>
 <path style="fill:#e4e4e4" d="M 15.2,4 H 48.8 C 51.119434,4 53,5.8923937 53,8.2264151 V 55.773585 C 53,58.107607 51.119434,60 48.8,60 H 15.2 C 12.880567,60 11,58.107607 11,55.773585 V 8.2264151 C 11,5.8923937 12.880567,4 15.2,4 Z m 0,0"/>
 <path style="fill:#3faf7f" d="M 18.998698,18 H 45.001302 C 46.106051,18 47,17.10547 47,16 v -4 c 0,-1.10547 -0.893949,-2 -1.998698,-2 H 18.998698 C 17.893949,10 17,10.89453 17,12 v 4 c 0,1.10547 0.893949,2 1.998698,2 z m 0,0"/>
 <rect style="opacity:0.2" width="22" height="6" x="16" y="49" rx="1"/>
 <rect style="opacity:0.2" width="6" height="26" x="42" y="29" rx="1"/>
 <rect style="opacity:0.2" width="10" height="6" x="16" y="39" rx="1"/>
 <rect style="opacity:0.2" width="10" height="6" x="16" y="29" rx="1"/>
 <rect style="opacity:0.2" width="10" height="6" x="28" y="39" rx="1"/>
 <rect style="opacity:0.2" width="10" height="6" x="28" y="29" rx="1"/>
 <rect style="fill:#4bae4f" width="22" height="6" x="16" y="48" rx="1"/>
 <path style="fill:#ffffff;opacity:0.2" d="M 17 48 C 16.446 48 16 48.446 16 49 L 16 50 C 16 49.446 16.446 49 17 49 L 37 49 C 37.554 49 38 49.446 38 50 L 38 49 C 38 48.446 37.554 48 37 48 L 17 48 z"/>
 <rect style="fill:#df574d" width="6" height="26" x="42" y="28" rx="1"/>
 <path style="fill:#ffffff;opacity:0.2" d="M 43 28 C 42.446 28 42 28.446 42 29 L 42 30 C 42 29.446 42.446 29 43 29 L 47 29 C 47.554 29 48 29.446 48 30 L 48 29 C 48 28.446 47.554 28 47 28 L 43 28 z"/>
 <rect style="fill:#f5f5f5" width="10" height="6" x="16" y="38" rx="1"/>
 <rect style="fill:#f5f5f5" width="10" height="6" x="16" y="28" rx="1"/>
 <rect style="fill:#f5f5f5" width="10" height="6" x="28" y="38" rx="1"/>
 <rect style="fill:#f5f5f5" width="10" height="6" x="28" y="28" rx="1"/>
 <rect style="fill:#f5f5f5" width="32" height="14" x="16" y="10" rx="2"/>
 <path style="opacity:0.2" d="M 18 10 C 16.892 10 16 10.892 16 12 L 16 13 C 16 11.892 16.892 11 18 11 L 46 11 C 47.108 11 48 11.892 48 13 L 48 12 C 48 10.892 47.108 10 46 10 L 18 10 z"/>
 <path style="fill:#ffffff;opacity:0.2" d="M 15.199219 4 C 12.879786 4 11 5.8925411 11 8.2265625 L 11 9.2265625 C 11 6.8925411 12.879786 5 15.199219 5 L 48.800781 5 C 51.120215 5 53 6.8925411 53 9.2265625 L 53 8.2265625 C 53 5.8925411 51.120215 4 48.800781 4 L 15.199219 4 z"/>
</svg>

<?xml version="1.0" encoding="UTF-8" standalone="no"?>
<svg
   id="_图层_1"
   version="1.1"
   viewBox="0 0 64 64" width="64" height="64"
   sodipodi:docname="com.github.diegoivanme.plano.svg"
   xml:space="preserve"
   inkscape:version="1.4 (e7c3feb100, 2024-10-09)"
   xmlns:inkscape="http://www.inkscape.org/namespaces/inkscape"
   xmlns:sodipodi="http://sodipodi.sourceforge.net/DTD/sodipodi-0.dtd"
   xmlns="http://www.w3.org/2000/svg"
   xmlns:svg="http://www.w3.org/2000/svg"><sodipodi:namedview
     id="namedview26"
     pagecolor="#505050"
     bordercolor="#eeeeee"
     borderopacity="1"
     inkscape:showpageshadow="0"
     inkscape:pageopacity="0"
     inkscape:pagecheckerboard="0"
     inkscape:deskcolor="#505050"
     inkscape:zoom="8.453125"
     inkscape:cx="31.94085"
     inkscape:cy="33.833641"
     inkscape:window-width="1920"
     inkscape:window-height="939"
     inkscape:window-x="0"
     inkscape:window-y="34"
     inkscape:window-maximized="1"
     inkscape:current-layer="_图层_1" /><!-- Generator: Adobe Illustrator 29.0.1, SVG Export Plug-In . SVG Version: 2.1.0 Build 192)  --><defs
     id="defs6"><style
       id="style1">
      .st0 {
        fill-opacity: .5;
      }

      .st0, .st1, .st2, .st3, .st4, .st5, .st6, .st7 {
        fill: #fff;
      }

      .st8 {
        fill: #133c9a;
      }

      .st2, .st9 {
        display: none;
      }

      .st3 {
        fill-opacity: .2;
      }

      .st4 {
        fill-opacity: .9;
      }

      .st10 {
        fill: #3370ff;
      }

      .st11 {
        fill: url(#_未命名的渐变_3);
      }

      .st12 {
        fill: url(#_未命名的渐变);
      }

      .st5 {
        fill-opacity: .3;
      }

      .st6 {
        fill-opacity: 0;
      }

      .st7 {
        fill-opacity: .7;
      }

      .st13 {
        fill: #00d6b9;
      }

      .st14 {
        fill: url(#_未命名的渐变_2);
      }
    </style><radialGradient
       id="_未命名的渐变"
       data-name="未命名的渐变"
       cx="123.9"
       cy="-40.2"
       fx="123.9"
       fy="-40.2"
       r="59.4"
       gradientTransform="translate(-26.8 25.5) scale(.6 -.7)"
       gradientUnits="userSpaceOnUse"><stop
         offset="0"
         stop-color="#db202e"
         id="stop1" /><stop
         offset="1"
         stop-color="#e01b24"
         id="stop2" /></radialGradient><radialGradient
       id="_未命名的渐变_2"
       data-name="未命名的渐变 2"
       cx="67.6"
       cy="26.8"
       fx="67.6"
       fy="26.8"
       r="105.2"
       gradientTransform="translate(-26.6 25.3) scale(.6 -.7)"
       gradientUnits="userSpaceOnUse"><stop
         offset="0"
         stop-color="#ffb648"
         id="stop3" /><stop
         offset="1"
         stop-color="#ff7800"
         stop-opacity="0"
         id="stop4" /></radialGradient><radialGradient
       id="_未命名的渐变_3"
       data-name="未命名的渐变 3"
       cx="61.7"
       cy="18.6"
       fx="61.7"
       fy="18.6"
       r="68"
       gradientTransform="translate(-26.8 25.8) scale(.6 -.7)"
       gradientUnits="userSpaceOnUse"><stop
         offset="0"
         stop-color="#c64600"
         id="stop5" /><stop
         offset="1"
         stop-color="#a51d2d"
         id="stop6" /></radialGradient></defs><path
     class="st1"
     d="M47.5,64.1H13.8c-7.6,0-13.8-6.3-13.8-13.8V13.7C0,6.2,6.2,0,13.7,0h36.6c7.5,0,13.7,6.2,13.7,13.7v36.6c0,7.5-6.2,13.7-13.7,13.7h-2.9.1Z"
     id="path6"
     style="fill:#e4e4e4;fill-opacity:1" /><g
     id="g49"
     transform="matrix(1.1746325,0,0,1.1390537,-5.5882405,-4.6162889)"><path
       style="fill:#3faf7f"
       d="M 18.998698,18 H 45.001302 C 46.106051,18 47,17.10547 47,16 v -4 c 0,-1.10547 -0.893949,-2 -1.998698,-2 H 18.998698 C 17.893949,10 17,10.89453 17,12 v 4 c 0,1.10547 0.893949,2 1.998698,2 z m 0,0"
       id="path3" /><rect
       style="opacity:0.2"
       width="22"
       height="6"
       x="16"
       y="49"
       rx="1"
       id="rect3-5" /><rect
       style="opacity:0.2"
       width="6"
       height="26"
       x="42"
       y="29"
       rx="1"
       id="rect4-4" /><rect
       style="opacity:0.2"
       width="10"
       height="6"
       x="16"
       y="39"
       rx="1"
       id="rect5-7" /><rect
       style="opacity:0.2"
       width="10"
       height="6"
       x="16"
       y="29"
       rx="1"
       id="rect6-6" /><rect
       style="opacity:0.2"
       width="10"
       height="6"
       x="28"
       y="39"
       rx="1"
       id="rect7" /><rect
       style="opacity:0.2"
       width="10"
       height="6"
       x="28"
       y="29"
       rx="1"
       id="rect8" /><rect
       style="fill:#4bae4f"
       width="22"
       height="6"
       x="16"
       y="48"
       rx="1"
       id="rect9" /><path
       style="opacity:0.2;fill:#ffffff"
       d="m 17,48 c -0.554,0 -1,0.446 -1,1 v 1 c 0,-0.554 0.446,-1 1,-1 h 20 c 0.554,0 1,0.446 1,1 v -1 c 0,-0.554 -0.446,-1 -1,-1 z"
       id="path9" /><rect
       style="fill:#df574d"
       width="6"
       height="26"
       x="42"
       y="28"
       rx="1"
       id="rect10" /><path
       style="opacity:0.2;fill:#ffffff"
       d="m 43,28 c -0.554,0 -1,0.446 -1,1 v 1 c 0,-0.554 0.446,-1 1,-1 h 4 c 0.554,0 1,0.446 1,1 v -1 c 0,-0.554 -0.446,-1 -1,-1 z"
       id="path10" /><rect
       style="fill:#f5f5f5"
       width="10"
       height="6"
       x="16"
       y="38"
       rx="1"
       id="rect11" /><rect
       style="fill:#f5f5f5"
       width="10"
       height="6"
       x="16"
       y="28"
       rx="1"
       id="rect12" /><rect
       style="fill:#f5f5f5"
       width="10"
       height="6"
       x="28"
       y="38"
       rx="1"
       id="rect13" /><rect
       style="fill:#f5f5f5"
       width="10"
       height="6"
       x="28"
       y="28"
       rx="1"
       id="rect14" /><rect
       style="fill:#f5f5f5"
       width="32"
       height="14"
       x="16"
       y="10"
       rx="2"
       id="rect15" /><path
       style="opacity:0.2"
       d="m 18,10 c -1.108,0 -2,0.892 -2,2 v 1 c 0,-1.108 0.892,-2 2,-2 h 28 c 1.108,0 2,0.892 2,2 v -1 c 0,-1.108 -0.892,-2 -2,-2 z"
       id="path15" /></g></svg>
